X:5948
T:Seven Oaks
O:england
M:4/4
L:1/8
C:Dwight Muller 1996
K:D
A3 e edBA | G2 BG DGBG | Aeed e3f | gedB BAAG |
Aeed edBA | G2 BG dGBG | Aeed e2ef | gedB BAA2 :|
azea aged | cdef gedf | eaag agef | gedB BAA2 |
a2ea aged | cdef g2fg | afge d3 g | gedB BAA2 |
azea aged | cdef (3gfe fd | eaag agef | gedB BAA2 |
(3aba ea aged | cdef g3 a | bgag e3 g | gedB BAAG ||


